X: 21221
M: 2/4
L: 1/16
K: D
V: 1 name="1"
[|\
a3a A2a2 | f2d2 A4 | (B2A2)(d2c2) | f2e2 (3(fga) A2 |\
a2a2 A2a2 | f2d2 A4 | ABcd e2f2 | d6 z2 H|]
ceA2 c2e2 | g2f2 e2A2 | dfA2 d2f2 | a2g2 e2A2 |\
ceA2 c2e2 | cdef g2a2 | d6 "^D.C."y|]
(B2A2)(d2c2) | (e2d2)(f2A2) | (B2A2) (F2A2) | A2G2 E2G2 |\
(B2A2)(d2c2) | (e2d2) (f2A2) | (B2e2) (A2c2) | d6 "^D.C."y|]


